X: 1
T: Habervogl
R: zwiefacher
Z: John Chambers <jc@trillian.mit.edu> http://trillian.mit.edu/~jc/music/
M: 23/4
L: 1/8
K: C
|: "G7"G2 \
| "C"[e2G2] [eG][eG] [eG][eG] | [e2G2] [d2G2] [c2G2] \
| "F"[c2A2][A2F2] | [A4F4] | [c2A2][A2F2] | [A4F4] \
| "G7"[d2F2] [dF][dF] [dF][dF] | [d2F2] [c2F2] [A2F2] \
| "C"[A2F2][G2E2] | [G4E4] |
| "C"[A2F2][G2E2] | [G4E4] \
||"C"[c2E2] [cE][cE] [cE][cE] | [c2E2] [B2E2] [A2E2] \
| "G7"[B2F2][BF][cF] | [d4F4] | [B2F2][BF][cF] | [d4F4] \
| "G7"[g2B2] [gB][gB] [gB][gB] | [g2B2] [f2B2] [B2F2] | "C"[c2E2] z2 :|
|: G2 \
| "C"A2 G^F Gc | "G7"[B2G2][f2B2] | [B2G2][f2B2] \
|    A2 G^F GB |  "C"[c2E2][e2G2] | [c2E2][e2G2] \
| "C"A2 G^F Gc | "G7"[B2G2][f2B2] | [B2G2][f2B2] \
| "G7"G2 [BG][dB] [fd][BG] | "C"[c2E2] z2 :|
